design/Devices/air_conditioner.svg

<svg width="24" height="24" viewBox="0 0 24 24" xmlns="http://www.w3.org/2000/svg">
<path fill-rule="evenodd" clip-rule="evenodd" d="M2 6C2 4.89543 2.89543 4 4 4H20C21.1046 4 22 4.89543 22 6V18C22 19.1046 21.1046 20 20 20H4C2.89543 20 2 19.1046 2 18V6ZM16 12C16 15.3137 13.3137 18 10 18C6.68629 18 4 15.3137 4 12C4 8.68629 6.68629 6 10 6C13.3137 6 16 8.68629 16 12ZM19 8C19.5523 8 20 7.55228 20 7C20 6.44772 19.5523 6 19 6C18.4477 6 18 6.44772 18 7C18 7.55228 18.4477 8 19 8Z"/>
<path d="M10.25 7C12.5 7 12.55 8.785 11.365 9.375C11.1448 9.50555 10.9574 9.68468 10.817 9.89872C10.6766 10.1128 10.587 10.356 10.555 10.61C10.7941 10.7092 11.0052 10.8654 11.17 11.065C13 10.065 15 10.46 15 12.25C15 14.5 13.21 14.55 12.625 13.365C12.4907 13.1449 12.3086 12.9579 12.0922 12.8177C11.8759 12.6775 11.6307 12.5877 11.375 12.555C11.2746 12.7934 11.1186 13.0043 10.92 13.17C11.92 15.015 11.52 17 9.73 17C7.5 17 7.445 15.21 8.63 14.62C8.8466 14.4877 9.03145 14.3094 9.17144 14.0977C9.31142 13.886 9.40311 13.6461 9.44 13.395C9.19492 13.2991 8.97938 13.1405 8.815 12.935C6.97 13.925 5 13.535 5 11.75C5 9.5 6.77 9.445 7.36 10.63C7.49246 10.8491 7.67285 11.0354 7.88761 11.1748C8.10237 11.3142 8.34593 11.4032 8.6 11.435C8.69626 11.1943 8.85507 10.9837 9.06 10.825C8.065 9 8.46 7 10.24 7H10.25Z"/>
</svg>

<svg xmlns="http://www.w3.org/2000/svg" width="24" height="24" viewBox="0 0 24 24"><path d="M20,4H4A2,2,0,0,0,2,6V18a2,2,0,0,0,2,2H20a2,2,0,0,0,2-2V6A2,2,0,0,0,20,4ZM10,18a6,6,0,1,1,6-6A6,6,0,0,1,10,18ZM19,8a1,1,0,1,1,1-1A1,1,0,0,1,19,8Zm-4,4.25c0,2.25-1.79,2.3-2.38,1.11a1.61,1.61,0,0,0-.53-.54,1.65,1.65,0,0,0-.71-.26,1.82,1.82,0,0,1-.46.61c1,1.85.6,3.83-1.19,3.83-2.23,0-2.28-1.79-1.1-2.38a1.68,1.68,0,0,0,.54-.52,1.76,1.76,0,0,0,.27-.7,1.61,1.61,0,0,1-.63-.46C7,13.93,5,13.53,5,11.75,5,9.5,6.77,9.44,7.36,10.63a1.52,1.52,0,0,0,.53.54,1.81,1.81,0,0,0,.71.27,1.51,1.51,0,0,1,.46-.62C8.06,9,8.46,7,10.24,7h0c2.25,0,2.3,1.78,1.11,2.38a1.58,1.58,0,0,0-.54.52,1.65,1.65,0,0,0-.26.71,1.7,1.7,0,0,1,.61.45C13,10.06,15,10.46,15,12.25Z"/><rect width="24" height="24" fill="none"/></svg>
